X: 2266
T: Baboro
R: jig
M: 6/8
K: Dmajor
A|:D2 E F2 G|A2 d c2 d|A2 B G2 B|(A3 A2) z|
D2 E F2 D|G2 E C2 E|1 D3 z2 A:|2 D2 z z2 z||
d2 e f2 d|e2 c A2 B/c/|(d3 d2) A|d2 e f2 d|
e2 c A2 B/c/|(d3 d2) d|D2 E F2 G|A2 d c2 d|
A2 B G2 B|(A3 A2) z|D2 E F2 D|G2 E C2 E|D3 z2||

